static/images/logo_ugent_nl.svg

<?xml version="1.0" encoding="UTF-8"?>
<svg xmlns="http://www.w3.org/2000/svg" xmlns:xlink="http://www.w3.org/1999/xlink" width="64pt" height="48pt" viewBox="0 0 64 48" version="1.1">
<g>
<path fill="#1E64C8" d="
M11.266,16.504h1.246v-8.098h-1.246Z
M8.773,16.504h1.246v-8.098h-1.246Z
M6.277,16.504h1.246v-8.098h-1.246Z
M3.785,16.504h1.246v-8.098h-1.246Z
M13.762,16.504h1.246v-8.098h-1.246Z
M16.254,16.504h1.246v-8.098h-1.246Z
M18.75,16.504h1.246v-8.098h-1.246Z
M2.508,19h18.766v-1.25h-18.766Z
M19.996,7.16h-16.211l-1.25,-1.246h18.707Z
M1.262,21.492h21.258v-1.246h-21.258Z
M22.52,3.898l-10.629,-3.766l-10.629,3.766v1.32l10.629,-3.762l10.629,3.762Z
M38.906,27.387c0.555,-0.004,1.07,0.18,1.312,0.367v-1.125c-0.242,-0.148,-0.824,-0.309,-1.422,-0.309c-1.652,0,-2.566,0.941,-2.566,2.305c0,1.141,0.484,1.684,1.262,2.355l0.711,0.613c0.582,0.492,0.949,0.867,0.949,1.602c0,0.855,-0.566,1.199,-1.418,1.199c-0.645,0,-1.18,-0.18,-1.488,-0.395v1.145c0.27,0.156,0.836,0.316,1.598,0.316c1.652,-0.004,2.562,-0.941,2.566,-2.309c0,-1.137,-0.484,-1.684,-1.258,-2.355l-0.711,-0.613c-0.59,-0.504,-0.953,-0.863,-0.949,-1.598c0,-0.863,0.562,-1.199,1.414,-1.199
M1.262,32.641v-6.16h1.246v6.215c0,1.301,0.449,1.68,1.355,1.68c0.91,0,1.355,-0.379,1.355,-1.68v-6.215h1.25v6.16c0,2.008,-0.84,2.82,-2.605,2.82c-1.789,0,-2.602,-0.789,-2.602,-2.82
M8.082,26.48h1.438l2.781,7.027c-0.094,-0.719,-0.176,-1.559,-0.176,-2.348v-4.68h1.195v8.816h-1.438l-2.809,-7.055c0.105,0.723,0.203,1.578,0.203,2.375v4.68h-1.195Z
M15.086,35.297h1.246v-8.816h-1.246Z
M17.492,26.48h1.305l1.109,4.586c0.164,0.691,0.367,1.855,0.492,2.781c0.121,-0.926,0.324,-2.09,0.512,-2.781l1.102,-4.586h1.262l-2.238,8.816h-1.305Z
M24.43,26.48h4.125v1.059h-2.875v2.699h2.32v1.043h-2.32v2.957h2.875v1.059h-4.125Z
M31.246,27.539v3.109h0.664c0.977,0,1.629,-0.207,1.629,-1.562c0,-1.344,-0.652,-1.547,-1.629,-1.547ZM29.996,26.48h2.035c1.629,0,2.797,0.613,2.797,2.605c0,1.395,-0.68,2.074,-1.535,2.387l1.871,3.824h-1.422l-1.656,-3.594h-0.84v3.594h-1.25v-8.816
M41.891,35.297h1.246v-8.816h-1.246Z
M44.324,26.48h5.059v1.059h-1.914v7.758h-1.246v-7.758h-1.898Z
M50.527,26.48h4.121v1.059h-2.875v2.699h2.32v1.043h-2.32v2.957h2.875v1.059h-4.121Z
M56.078,35.297h1.246v-8.816h-1.246Z
M58.469,26.48h5.059v1.059h-1.914v7.758h-1.246v-7.758h-1.898Z
M0.988,43.332c0,-3.473,0.922,-4.57,3.215,-4.57c0.652,0,1.344,0.176,1.641,0.352v1.152c-0.324,-0.188,-0.949,-0.395,-1.547,-0.395c-1.465,0,-2.02,0.543,-2.02,3.461c0,2.887,0.395,3.484,1.668,3.484c0.395,0,0.719,-0.051,0.965,-0.121v-2.941h-1.305v-1.059h2.551v4.762c-0.258,0.16,-1.289,0.445,-2.195,0.445c-2.391,0,-2.973,-1.246,-2.973,-4.57
M7.645,38.922h4.125v1.059h-2.875v2.699h2.32v1.043h-2.32v2.961h2.875v1.055h-4.125Z
M13.211,38.922h1.438l2.781,7.027c-0.094,-0.719,-0.176,-1.559,-0.176,-2.348v-4.68h1.195v8.816h-1.438l-2.809,-7.051c0.105,0.719,0.203,1.574,0.203,2.371v4.68h-1.195Z
M19.59,38.922h5.059v1.059h-1.91v7.758h-1.25v-7.758h-1.898Z
"/>
</g>
</svg>

<?xml version="1.0" encoding="UTF-8"?>
<svg xmlns="http://www.w3.org/2000/svg" xmlns:xlink="http://www.w3.org/1999/xlink" width="64pt" height="48pt" viewBox="0 0 64 48" version="1.1">
<g id="surface1">
<path fill="#1E64C8" d="M11.266,16.504L12.512,16.504L12.512,8.406L11.266,8.406Z M11.266,16.504"/>
<path fill="#1E64C8" d="M8.773,16.504L10.02,16.504L10.02,8.406L8.773,8.406Z M8.773,16.504"/>
<path fill="#1E64C8" d="M6.277,16.504L7.523,16.504L7.523,8.406L6.277,8.406Z M6.277,16.504"/>
<path fill="#1E64C8" d="M3.785,16.504L5.031,16.504L5.031,8.406L3.785,8.406Z M3.785,16.504"/>
<path fill="#1E64C8" d="M13.762,16.504L15.008,16.504L15.008,8.406L13.762,8.406Z M13.762,16.504"/>
<path fill="#1E64C8" d="M16.254,16.504L17.5,16.504L17.5,8.406L16.254,8.406Z M16.254,16.504"/>
<path fill="#1E64C8" d="M18.75,16.504L19.996,16.504L19.996,8.406L18.75,8.406Z M18.75,16.504"/>
<path fill="#1E64C8" d="M2.508,19L21.273,19L21.273,17.75L2.508,17.75Z M2.508,19"/>
<path fill="#1E64C8" d="M19.996,7.16L3.785,7.16L2.535,5.914L21.242,5.914L19.996,7.16"/>
<path fill="#1E64C8" d="M1.262,21.492L22.52,21.492L22.52,20.246L1.262,20.246Z M1.262,21.492"/>
<path fill="#1E64C8" d="M22.52,3.898L11.891,0.133L1.262,3.898L1.262,5.219L11.891,1.457L22.52,5.219L22.52,3.898"/>
<path fill="#1E64C8" d="M38.906,27.387C39.461,27.383,39.977,27.566,40.219,27.754 L40.219,26.629C39.977,26.48,39.395,26.32,38.797,26.32 C37.145,26.32,36.23,27.262,36.23,28.625 C36.23,29.766,36.715,30.309,37.492,30.98 L38.203,31.594C38.785,32.086,39.152,32.461,39.152,33.195 C39.152,34.051,38.586,34.395,37.734,34.395 C37.09,34.395,36.555,34.215,36.246,34 L36.246,35.145C36.516,35.301,37.082,35.461,37.844,35.461 C39.496,35.457,40.406,34.52,40.41,33.152 C40.41,32.016,39.926,31.469,39.152,30.797 L38.441,30.184C37.852,29.68,37.488,29.32,37.492,28.586 C37.492,27.723,38.055,27.387,38.906,27.387 "/>
<path fill="#1E64C8" d="M1.262,32.641L1.262,26.48L2.508,26.48L2.508,32.695C2.508,33.996,2.957,34.375,3.863,34.375 C4.773,34.375,5.219,33.996,5.219,32.695 L5.219,26.48L6.469,26.48L6.469,32.641C6.469,34.648,5.629,35.461,3.863,35.461 C2.074,35.461,1.262,34.672,1.262,32.641 "/>
<path fill="#1E64C8" d="M8.082,26.48L9.52,26.48L12.301,33.508C12.207,32.789,12.125,31.949,12.125,31.16 L12.125,26.48L13.32,26.48L13.32,35.297L11.883,35.297L9.074,28.242C9.18,28.965,9.277,29.82,9.277,30.617 L9.277,35.297L8.082,35.297L8.082,26.48"/>
<path fill="#1E64C8" d="M15.086,35.297L16.332,35.297L16.332,26.48L15.086,26.48Z M15.086,35.297"/>
<path fill="#1E64C8" d="M17.492,26.48L18.797,26.48L19.906,31.066C20.07,31.758,20.273,32.922,20.398,33.848 C20.52,32.922,20.723,31.758,20.91,31.066 L22.012,26.48L23.273,26.48L21.035,35.297L19.73,35.297L17.492,26.48"/>
<path fill="#1E64C8" d="M24.43,26.48L28.555,26.48L28.555,27.539L25.68,27.539L25.68,30.238L28,30.238L28,31.281L25.68,31.281L25.68,34.238L28.555,34.238L28.555,35.297L24.43,35.297L24.43,26.48"/>
<path fill="#1E64C8" d="M31.246,27.539L31.246,30.648L31.91,30.648C32.887,30.648,33.539,30.441,33.539,29.086 C33.539,27.742,32.887,27.539,31.91,27.539 Z M29.996,26.48L32.031,26.48C33.66,26.48,34.828,27.094,34.828,29.086 C34.828,30.48,34.148,31.16,33.293,31.473 L35.164,35.297L33.742,35.297L32.086,31.703L31.246,31.703L31.246,35.297L29.996,35.297L29.996,26.48"/>
<path fill="#1E64C8" d="M41.891,35.297L43.137,35.297L43.137,26.48L41.891,26.48Z M41.891,35.297"/>
<path fill="#1E64C8" d="M44.324,26.48L49.383,26.48L49.383,27.539L47.469,27.539L47.469,35.297L46.223,35.297L46.223,27.539L44.324,27.539L44.324,26.48"/>
<path fill="#1E64C8" d="M50.527,26.48L54.648,26.48L54.648,27.539L51.773,27.539L51.773,30.238L54.094,30.238L54.094,31.281L51.773,31.281L51.773,34.238L54.648,34.238L54.648,35.297L50.527,35.297L50.527,26.48"/>
<path fill="#1E64C8" d="M56.078,35.297L57.324,35.297L57.324,26.48L56.078,26.48Z M56.078,35.297"/>
<path fill="#1E64C8" d="M58.469,26.48L63.527,26.48L63.527,27.539L61.613,27.539L61.613,35.297L60.367,35.297L60.367,27.539L58.469,27.539L58.469,26.48"/>
<path fill="#1E64C8" d="M0.988,43.332C0.988,39.859,1.91,38.762,4.203,38.762 C4.855,38.762,5.547,38.938,5.844,39.113 L5.844,40.266C5.52,40.078,4.895,39.871,4.297,39.871 C2.832,39.871,2.277,40.414,2.277,43.332 C2.277,46.219,2.672,46.816,3.945,46.816 C4.34,46.816,4.664,46.766,4.91,46.695 L4.91,43.754L3.605,43.754L3.605,42.695L6.156,42.695L6.156,47.457C5.898,47.617,4.867,47.902,3.961,47.902 C1.57,47.902,0.988,46.656,0.988,43.332 "/>
<path fill="#1E64C8" d="M7.645,38.922L11.77,38.922L11.77,39.98L8.895,39.98L8.895,42.68L11.215,42.68L11.215,43.723L8.895,43.723L8.895,46.684L11.77,46.684L11.77,47.738L7.645,47.738L7.645,38.922"/>
<path fill="#1E64C8" d="M13.211,38.922L14.648,38.922L17.43,45.949C17.336,45.23,17.254,44.391,17.254,43.602 L17.254,38.922L18.449,38.922L18.449,47.738L17.012,47.738L14.203,40.688C14.309,41.406,14.406,42.262,14.406,43.059 L14.406,47.738L13.211,47.738L13.211,38.922"/>
<path fill="#1E64C8" d="M19.59,38.922L24.648,38.922L24.648,39.98L22.738,39.98L22.738,47.738L21.488,47.738L21.488,39.98L19.59,39.98L19.59,38.922"/>
</g>
</svg>
